rospo-icon-theme-classic-common/22x22/apps/anoise.svg

<svg height="22" viewBox="0 0 22 22" width="22" xmlns="http://www.w3.org/2000/svg"><circle cx="11" cy="11.5" opacity=".2" r="10"/><circle cx="11" cy="11" fill="#ff8a18" r="10"/><path d="m11 1a10 10 0 0 0 -10 10 10 10 0 0 0  .01075.291 10 10 0 0 1 9.98925-9.791 10 10 0 0 1 9.9895 9.709 10 10 0 0 0  .0105-.209 10 10 0 0 0 -10-10z" fill="#fff" opacity=".2"/><circle cx="11" cy="11.5" opacity=".2" r="7"/><circle cx="11" cy="11" fill="#fff" r="7"/><path d="m9.3574219 5.2578125-1.4140625 1.4140625 4.2421876 4.242187-4.2421876 4.242188 1.4140625 1.414062 4.2421871-4.242187 1.414063-1.414063-1.414063-1.414062z" fill="#3f3f3f"/></svg>

<svg xmlns="http://www.w3.org/2000/svg" width="22" height="22" version="1.1" viewBox="0 0 22 22">
 <circle style="opacity:0.2" cx="11" cy="11.5" r="10"/>
 <circle style="fill:#ff8a18" cx="11" cy="11" r="10"/>
 <path style="opacity:0.2;fill:#ffffff" d="M 11,1 A 10,10 0 0 0 1,11 10,10 0 0 0 1.01075,11.291 10,10 0 0 1 11,1.5 10,10 0 0 1 20.9895,11.209 10,10 0 0 0 21,11 10,10 0 0 0 11,1 Z"/>
 <circle style="opacity:0.2" cx="11" cy="11.5" r="7"/>
 <circle style="fill:#ffffff" cx="11" cy="11" r="7"/>
 <path style="fill:#3f3f3f" d="M 9.3574219 5.2578125 L 7.9433594 6.671875 L 12.185547 10.914062 L 7.9433594 15.15625 L 9.3574219 16.570312 L 13.599609 12.328125 L 15.013672 10.914062 L 13.599609 9.5 L 9.3574219 5.2578125 z"/>
</svg>
